assets/cards-tab/Asset/PCI.svg

<svg width="64" height="22" viewBox="0 0 64 22" fill="none" xmlns="http://www.w3.org/2000/svg">
<path d="M7.79355 14.0631C8.03089 14.139 8.21737 14.1986 8.56653 14.1659C9.79641 13.9727 16.1622 6.77685 20.7752 5.40966C20.8062 5.4015 20.8399 5.3852 20.8651 5.36619C20.9015 5.34175 20.9125 5.30917 20.9125 5.30917C20.9125 5.30917 20.9703 5.13814 20.4193 4.96191C17.1184 3.80683 11.382 9.41719 8.66284 11.4894C8.62641 11.5138 8.51874 11.4433 8.51874 11.4433C8.51874 11.4433 7.7658 9.66834 6.88507 8.80005C6.86239 8.78377 6.75747 8.70509 6.62758 8.67257C6.54281 8.64545 6.01818 8.58594 5.71229 8.74079C5.34752 8.93094 5.30373 9.0884 5.19094 9.42232C5.18269 9.44676 5.16113 9.5662 5.17578 9.63406C5.28999 10.1579 5.94003 12.0985 6.62321 13.2736C6.73155 13.4256 6.86963 13.7675 7.79355 14.0631Z" fill="#5CC06B"/>
<path d="M16.5152 11.4389C16.5147 13.0457 15.9883 14.6107 15.0124 15.9068C14.0364 17.203 12.6616 18.163 11.0873 18.6477C9.51296 19.1324 7.82091 19.1166 6.25645 18.6025C4.69198 18.0885 3.33641 17.1029 2.38625 15.7887C1.43609 14.4745 0.940726 12.9 0.971974 11.2935C1.00322 9.68688 1.55946 8.13174 2.56004 6.85348C3.56062 5.57522 4.95355 4.64029 6.53688 4.18421C8.12022 3.72814 9.81167 3.77463 11.366 4.31695" stroke="#5CC06B" stroke-width="1.94118" stroke-linecap="round" stroke-linejoin="round"/>
<path d="M22.5983 9.5V2.95455H25.1807C25.6771 2.95455 26.1001 3.04936 26.4495 3.23899C26.799 3.42649 27.0653 3.6875 27.2485 4.02202C27.4339 4.3544 27.5266 4.73793 27.5266 5.17259C27.5266 5.60724 27.4328 5.99077 27.2453 6.32315C27.0578 6.65554 26.7862 6.91442 26.4303 7.09979C26.0766 7.28516 25.6484 7.37784 25.1455 7.37784H23.4996V6.26882H24.9218C25.1882 6.26882 25.4076 6.22301 25.5802 6.13139C25.7549 6.03764 25.8849 5.90874 25.9701 5.74467C26.0575 5.57848 26.1012 5.38778 26.1012 5.17259C26.1012 4.95526 26.0575 4.76562 25.9701 4.60369C25.8849 4.43963 25.7549 4.31285 25.5802 4.22337C25.4055 4.13175 25.1839 4.08594 24.9154 4.08594H23.9822V9.5H22.5983ZM34.2007 5.24609H32.8008C32.7752 5.06499 32.723 4.90412 32.6442 4.76349C32.5654 4.62074 32.4642 4.49929 32.3406 4.39915C32.217 4.29901 32.0743 4.2223 31.9123 4.16903C31.7525 4.11577 31.5789 4.08913 31.3914 4.08913C31.0526 4.08913 30.7575 4.1733 30.5061 4.34162C30.2546 4.50781 30.0597 4.75071 29.9212 5.07031C29.7827 5.38778 29.7135 5.77344 29.7135 6.22727C29.7135 6.69389 29.7827 7.08594 29.9212 7.40341C30.0618 7.72088 30.2578 7.96058 30.5093 8.12251C30.7607 8.28445 31.0515 8.36541 31.3818 8.36541C31.5671 8.36541 31.7387 8.34091 31.8963 8.2919C32.0561 8.2429 32.1978 8.17152 32.3214 8.07777C32.445 7.98189 32.5473 7.86577 32.6282 7.7294C32.7113 7.59304 32.7689 7.4375 32.8008 7.26278L34.2007 7.26918C34.1645 7.5696 34.0739 7.85938 33.929 8.13849C33.7863 8.41548 33.5934 8.66371 33.3505 8.88317C33.1098 9.1005 32.8221 9.27308 32.4876 9.40092C32.1552 9.52663 31.7792 9.58949 31.3594 9.58949C30.7756 9.58949 30.2536 9.45739 29.7934 9.19318C29.3353 8.92898 28.973 8.54652 28.7067 8.04581C28.4425 7.5451 28.3104 6.93892 28.3104 6.22727C28.3104 5.51349 28.4446 4.90625 28.7131 4.40554C28.9816 3.90483 29.3459 3.52344 29.8061 3.26136C30.2664 2.99716 30.7841 2.86506 31.3594 2.86506C31.7387 2.86506 32.0902 2.91832 32.4141 3.02486C32.7401 3.13139 33.0288 3.28693 33.2802 3.49148C33.5316 3.69389 33.7362 3.94212 33.8939 4.23615C34.0537 4.53018 34.1559 4.86683 34.2007 5.24609ZM36.5769 2.95455V9.5H35.193V2.95455H36.5769ZM42.1188 9.5H39.7985V2.95455H42.138C42.7964 2.95455 43.3631 3.08558 43.8383 3.34766C44.3134 3.6076 44.6788 3.98153 44.9345 4.46946C45.1923 4.95739 45.3212 5.54119 45.3212 6.22088C45.3212 6.9027 45.1923 7.48864 44.9345 7.97869C44.6788 8.46875 44.3113 8.84482 43.8319 9.10689C43.3546 9.36896 42.7836 9.5 42.1188 9.5ZM41.1824 8.31428H42.0613C42.4704 8.31428 42.8145 8.24183 43.0936 8.09695C43.3749 7.94993 43.5858 7.72301 43.7264 7.41619C43.8692 7.10724 43.9406 6.70881 43.9406 6.22088C43.9406 5.73722 43.8692 5.34197 43.7264 5.03516C43.5858 4.72834 43.3759 4.50249 43.0968 4.3576C42.8177 4.21271 42.4736 4.14027 42.0645 4.14027H41.1824V8.31428ZM49.8971 4.837C49.8716 4.57919 49.7618 4.37891 49.5679 4.23615C49.3741 4.09339 49.1109 4.02202 48.7785 4.02202C48.5527 4.02202 48.362 4.05398 48.2064 4.1179C48.0509 4.17969 47.9316 4.26598 47.8485 4.37678C47.7675 4.48757 47.727 4.61328 47.727 4.75391C47.7228 4.87109 47.7473 4.97337 47.8005 5.06072C47.8559 5.14808 47.9316 5.22372 48.0275 5.28764C48.1233 5.34943 48.2341 5.40376 48.3599 5.45064C48.4856 5.49538 48.6198 5.53374 48.7626 5.5657L49.3506 5.70632C49.6361 5.77024 49.8982 5.85547 50.1368 5.962C50.3755 6.06854 50.5822 6.19957 50.7569 6.35511C50.9316 6.51065 51.0669 6.69389 51.1628 6.90483C51.2608 7.11577 51.3108 7.3576 51.313 7.63033C51.3108 8.03089 51.2086 8.3782 51.0062 8.67223C50.8059 8.96413 50.5161 9.19105 50.1368 9.35298C49.7597 9.51278 49.3048 9.59268 48.7721 9.59268C48.2437 9.59268 47.7835 9.51172 47.3915 9.34979C47.0015 9.18786 46.6969 8.94815 46.4774 8.63068C46.2601 8.31108 46.1461 7.91584 46.1354 7.44496H47.4746C47.4895 7.66442 47.5523 7.84766 47.6631 7.99467C47.776 8.13956 47.9263 8.24929 48.1138 8.32386C48.3034 8.39631 48.5175 8.43253 48.7562 8.43253C48.9905 8.43253 49.194 8.39844 49.3666 8.33026C49.5413 8.26207 49.6766 8.16726 49.7725 8.04581C49.8684 7.92436 49.9163 7.7848 49.9163 7.62713C49.9163 7.48011 49.8726 7.35653 49.7853 7.25639C49.7001 7.15625 49.5743 7.07102 49.4081 7.00071C49.2441 6.9304 49.0427 6.86648 48.8041 6.80895L48.0914 6.62997C47.5395 6.49574 47.1038 6.28587 46.7842 6.00036C46.4646 5.71484 46.3059 5.33026 46.308 4.84659C46.3059 4.45028 46.4113 4.10405 46.6244 3.80788C46.8396 3.51172 47.1347 3.28054 47.5097 3.11435C47.8847 2.94815 48.3108 2.86506 48.7881 2.86506C49.2739 2.86506 49.6979 2.94815 50.0601 3.11435C50.4245 3.28054 50.7079 3.51172 50.9103 3.80788C51.1127 4.10405 51.2171 4.44709 51.2235 4.837H49.8971ZM55.7946 4.837C55.769 4.57919 55.6593 4.37891 55.4654 4.23615C55.2715 4.09339 55.0084 4.02202 54.676 4.02202C54.4501 4.02202 54.2594 4.05398 54.1039 4.1179C53.9484 4.17969 53.829 4.26598 53.7459 4.37678C53.665 4.48757 53.6245 4.61328 53.6245 4.75391C53.6202 4.87109 53.6447 4.97337 53.698 5.06072C53.7534 5.14808 53.829 5.22372 53.9249 5.28764C54.0208 5.34943 54.1316 5.40376 54.2573 5.45064C54.383 5.49538 54.5173 5.53374 54.66 5.5657L55.2481 5.70632C55.5336 5.77024 55.7957 5.85547 56.0343 5.962C56.2729 6.06854 56.4796 6.19957 56.6543 6.35511C56.829 6.51065 56.9643 6.69389 57.0602 6.90483C57.1582 7.11577 57.2083 7.3576 57.2104 7.63033C57.2083 8.03089 57.106 8.3782 56.9036 8.67223C56.7033 8.96413 56.4136 9.19105 56.0343 9.35298C55.6572 9.51278 55.2023 9.59268 54.6696 9.59268C54.1412 9.59268 53.681 9.51172 53.2889 9.34979C52.899 9.18786 52.5943 8.94815 52.3749 8.63068C52.1575 8.31108 52.0435 7.91584 52.0329 7.44496H53.372C53.3869 7.66442 53.4498 7.84766 53.5606 7.99467C53.6735 8.13956 53.8237 8.24929 54.0112 8.32386C54.2009 8.39631 54.415 8.43253 54.6536 8.43253C54.888 8.43253 55.0915 8.39844 55.2641 8.33026C55.4388 8.26207 55.5741 8.16726 55.67 8.04581C55.7658 7.92436 55.8138 7.7848 55.8138 7.62713C55.8138 7.48011 55.7701 7.35653 55.6827 7.25639C55.5975 7.15625 55.4718 7.07102 55.3056 7.00071C55.1415 6.9304 54.9402 6.86648 54.7016 6.80895L53.9888 6.62997C53.437 6.49574 53.0013 6.28587 52.6817 6.00036C52.3621 5.71484 52.2033 5.33026 52.2055 4.84659C52.2033 4.45028 52.3088 4.10405 52.5219 3.80788C52.7371 3.51172 53.0322 3.28054 53.4072 3.11435C53.7822 2.94815 54.2083 2.86506 54.6856 2.86506C55.1714 2.86506 55.5954 2.94815 55.9576 3.11435C56.3219 3.28054 56.6053 3.51172 56.8077 3.80788C57.0102 4.10405 57.1146 4.44709 57.1209 4.837H55.7946ZM26.7425 16H26.126C26.0896 15.8227 26.0257 15.6669 25.9346 15.5327C25.8451 15.3984 25.7357 15.2857 25.6065 15.1946C25.4789 15.1018 25.3372 15.0322 25.1814 14.9858C25.0256 14.9394 24.8632 14.9162 24.6942 14.9162C24.386 14.9162 24.1067 14.9941 23.8565 15.1499C23.6079 15.3056 23.4099 15.5352 23.2624 15.8384C23.1165 16.1417 23.0436 16.5137 23.0436 16.9545C23.0436 17.3954 23.1165 17.7674 23.2624 18.0707C23.4099 18.3739 23.6079 18.6035 23.8565 18.7592C24.1067 18.915 24.386 18.9929 24.6942 18.9929C24.8632 18.9929 25.0256 18.9697 25.1814 18.9233C25.3372 18.8769 25.4789 18.8081 25.6065 18.717C25.7357 18.6242 25.8451 18.5107 25.9346 18.3764C26.0257 18.2405 26.0896 18.0848 26.126 17.9091H26.7425C26.6961 18.1693 26.6116 18.4021 26.4889 18.6076C26.3663 18.8131 26.2138 18.9879 26.0315 19.1321C25.8493 19.2746 25.6446 19.3832 25.4176 19.4577C25.1922 19.5323 24.9511 19.5696 24.6942 19.5696C24.26 19.5696 23.8739 19.4635 23.5358 19.2514C23.1977 19.0393 22.9318 18.7377 22.7379 18.3466C22.544 17.9555 22.447 17.4915 22.447 16.9545C22.447 16.4176 22.544 15.9536 22.7379 15.5625C22.9318 15.1714 23.1977 14.8698 23.5358 14.6577C23.8739 14.4455 24.26 14.3395 24.6942 14.3395C24.9511 14.3395 25.1922 14.3768 25.4176 14.4513C25.6446 14.5259 25.8493 14.6353 26.0315 14.7795C26.2138 14.922 26.3663 15.096 26.4889 15.3015C26.6116 15.5053 26.6961 15.7382 26.7425 16ZM32.0341 16.9545C32.0341 17.4915 31.9372 17.9555 31.7433 18.3466C31.5494 18.7377 31.2834 19.0393 30.9453 19.2514C30.6073 19.4635 30.2212 19.5696 29.787 19.5696C29.3528 19.5696 28.9667 19.4635 28.6286 19.2514C28.2905 19.0393 28.0245 18.7377 27.8306 18.3466C27.6368 17.9555 27.5398 17.4915 27.5398 16.9545C27.5398 16.4176 27.6368 15.9536 27.8306 15.5625C28.0245 15.1714 28.2905 14.8698 28.6286 14.6577C28.9667 14.4455 29.3528 14.3395 29.787 14.3395C30.2212 14.3395 30.6073 14.4455 30.9453 14.6577C31.2834 14.8698 31.5494 15.1714 31.7433 15.5625C31.9372 15.9536 32.0341 16.4176 32.0341 16.9545ZM31.4375 16.9545C31.4375 16.5137 31.3638 16.1417 31.2163 15.8384C31.0705 15.5352 30.8724 15.3056 30.6222 15.1499C30.3736 14.9941 30.0952 14.9162 29.787 14.9162C29.4787 14.9162 29.1995 14.9941 28.9493 15.1499C28.7007 15.3056 28.5026 15.5352 28.3551 15.8384C28.2093 16.1417 28.1364 16.5137 28.1364 16.9545C28.1364 17.3954 28.2093 17.7674 28.3551 18.0707C28.5026 18.3739 28.7007 18.6035 28.9493 18.7592C29.1995 18.915 29.4787 18.9929 29.787 18.9929C30.0952 18.9929 30.3736 18.915 30.6222 18.7592C30.8724 18.6035 31.0705 18.3739 31.2163 18.0707C31.3638 17.7674 31.4375 17.3954 31.4375 16.9545ZM33.0707 14.4091H33.8065L35.5366 18.6349H35.5963L37.3264 14.4091H38.0622V19.5H37.4855V15.6321H37.4358L35.8448 19.5H35.288L33.6971 15.6321H33.6474V19.5H33.0707V14.4091ZM39.2982 19.5V14.4091H41.0184C41.4178 14.4091 41.7443 14.4812 41.9978 14.6254C42.253 14.7679 42.4419 14.9609 42.5646 15.2045C42.6872 15.4482 42.7485 15.7199 42.7485 16.0199C42.7485 16.3198 42.6872 16.5924 42.5646 16.8377C42.4436 17.083 42.2563 17.2785 42.0028 17.4244C41.7492 17.5685 41.4244 17.6406 41.0284 17.6406H39.7954V17.0938H41.0085C41.2819 17.0938 41.5015 17.0465 41.6672 16.9521C41.8329 16.8576 41.9531 16.73 42.0276 16.5692C42.1039 16.4068 42.142 16.2237 42.142 16.0199C42.142 15.8161 42.1039 15.6338 42.0276 15.473C41.9531 15.3123 41.8321 15.1863 41.6647 15.0952C41.4973 15.0024 41.2753 14.956 40.9985 14.956H39.9147V19.5H39.2982ZM43.7416 19.5V14.4091H44.3581V18.9531H46.7246V19.5H43.7416ZM48.2956 14.4091V19.5H47.6791V14.4091H48.2956ZM49.7404 19.5H49.0941L50.9635 14.4091H51.5998L53.4691 19.5H52.8228L51.3015 15.2145H51.2618L49.7404 19.5ZM49.9791 17.5114H52.5842V18.0582H49.9791V17.5114ZM58.299 14.4091V19.5H57.7024L54.9283 15.5028H54.8786V19.5H54.2621V14.4091H54.8587L57.6428 18.4162H57.6925V14.4091H58.299ZM59.2542 14.956V14.4091H63.0724V14.956H61.4715V19.5H60.8551V14.956H59.2542Z" fill="#D1DAE6"/>
</svg>

<svg xmlns="http://www.w3.org/2000/svg" width="64" height="22" fill="none" viewBox="0 0 64 22"><path fill="#5cc06b" d="M7.794 14.063c.237.076.423.136.773.103 1.23-.193 7.595-7.39 12.208-8.756a.3.3 0 0 0 .09-.044.13.13 0 0 0 .048-.057s.057-.17-.494-.347c-3.3-1.155-9.037 4.455-11.756 6.527-.037.025-.144-.046-.144-.046S7.766 9.668 6.885 8.8c-.023-.016-.128-.095-.257-.127-.085-.028-.61-.087-.916.068-.364.19-.408.347-.521.681a.6.6 0 0 0-.015.212c.114.524.764 2.464 1.447 3.64.109.152.247.494 1.17.79"/><path stroke="#5cc06b" stroke-linecap="round" stroke-linejoin="round" stroke-width="1.941" d="M16.515 11.439a7.43 7.43 0 0 1-1.503 4.468 7.77 7.77 0 0 1-3.925 2.74 8 8 0 0 1-4.83-.044 7.76 7.76 0 0 1-3.87-2.814 7.42 7.42 0 0 1-1.415-4.495 7.44 7.44 0 0 1 1.588-4.44 7.78 7.78 0 0 1 3.977-2.67 8 8 0 0 1 4.829.133"/><path fill="#d1dae6" d="M22.598 9.5V2.955h2.583q.745 0 1.268.284.525.281.8.783.278.499.278 1.15 0 .653-.282 1.151a1.94 1.94 0 0 1-.815.777q-.53.278-1.285.278H23.5v-1.11h1.422q.4 0 .658-.137a.9.9 0 0 0 .39-.386 1.2 1.2 0 0 0 .131-.572 1.2 1.2 0 0 0-.13-.57.88.88 0 0 0-.39-.38q-.262-.137-.666-.137h-.933V9.5zm11.603-4.254h-1.4a1.4 1.4 0 0 0-.157-.483 1.2 1.2 0 0 0-.303-.364 1.3 1.3 0 0 0-.429-.23 1.6 1.6 0 0 0-.52-.08q-.509 0-.886.253-.377.25-.585.728-.207.476-.207 1.157 0 .7.207 1.176.21.477.588.72.378.242.873.242.278 0 .514-.073.24-.074.425-.214.186-.144.307-.349.124-.204.173-.466l1.4.006q-.055.45-.272.87a2.6 2.6 0 0 1-.579.744q-.36.326-.862.518a3.2 3.2 0 0 1-1.129.188 3.1 3.1 0 0 1-1.566-.396 2.8 2.8 0 0 1-1.086-1.147q-.397-.75-.397-1.819 0-1.07.403-1.821.403-.752 1.093-1.145.69-.396 1.553-.396.57 0 1.055.16.49.16.866.466.378.304.614.745.24.44.307 1.01m2.376-2.291V9.5h-1.384V2.955zM42.119 9.5h-2.32V2.955h2.339q.987 0 1.7.393.712.39 1.096 1.121.387.732.387 1.752 0 1.023-.386 1.758-.384.735-1.103 1.128-.715.393-1.713.393m-.937-1.186h.88q.613 0 1.032-.217.421-.22.632-.68.215-.465.215-1.196 0-.726-.215-1.186a1.4 1.4 0 0 0-.63-.677q-.417-.218-1.031-.218h-.883zm8.715-3.477a.8.8 0 0 0-.33-.6q-.29-.216-.788-.215-.339 0-.573.096a.8.8 0 0 0-.358.259.62.62 0 0 0-.121.377.54.54 0 0 0 .074.307.8.8 0 0 0 .227.227q.143.092.332.163.189.066.403.115l.588.14q.427.097.786.256.358.16.62.393.262.234.406.55.147.316.15.725a1.8 1.8 0 0 1-.307 1.042q-.3.438-.87.681-.564.24-1.364.24-.793 0-1.38-.243a2 2 0 0 1-.915-.72q-.325-.479-.342-1.185h1.34q.021.33.188.55.17.217.45.329.285.108.643.109.352 0 .61-.103a.94.94 0 0 0 .407-.284.66.66 0 0 0 .143-.419.54.54 0 0 0-.13-.37A1 1 0 0 0 49.407 7a4 4 0 0 0-.604-.192l-.713-.179q-.828-.201-1.307-.63-.48-.428-.476-1.153a1.7 1.7 0 0 1 .316-1.04q.323-.442.886-.693.562-.249 1.278-.249.729 0 1.272.25.546.249.85.693.304.445.314 1.029zm5.898 0a.8.8 0 0 0-.33-.6q-.291-.216-.789-.215-.34 0-.572.096a.8.8 0 0 0-.358.259.62.62 0 0 0-.122.377q-.006.176.074.307a.8.8 0 0 0 .227.227q.144.092.332.163.189.066.403.115l.588.14q.429.097.786.256.359.16.62.393.262.234.406.55.147.316.15.725a1.8 1.8 0 0 1-.306 1.042q-.3.438-.87.681-.566.24-1.364.24-.793 0-1.381-.243a2 2 0 0 1-.914-.72q-.326-.479-.342-1.185h1.339q.023.33.189.55.169.217.45.329.285.108.643.109.352 0 .61-.103a.94.94 0 0 0 .406-.284.66.66 0 0 0 .144-.419.54.54 0 0 0-.131-.37A1 1 0 0 0 55.306 7a4 4 0 0 0-.604-.192l-.713-.179q-.828-.201-1.307-.63-.48-.428-.477-1.153a1.7 1.7 0 0 1 .317-1.04q.323-.442.885-.693.562-.249 1.279-.249.728 0 1.272.25.546.249.85.693.303.445.313 1.029zM26.742 16h-.616a1.28 1.28 0 0 0-.52-.805 1.4 1.4 0 0 0-.425-.21 1.7 1.7 0 0 0-.487-.069q-.462 0-.837.234a1.63 1.63 0 0 0-.595.688q-.218.456-.218 1.117 0 .66.218 1.116.222.454.595.688.375.234.837.234.255 0 .487-.07.234-.07.425-.206a1.3 1.3 0 0 0 .52-.808h.616q-.069.39-.253.699a1.9 1.9 0 0 1-1.071.85 2.3 2.3 0 0 1-.724.112q-.651 0-1.158-.319a2.2 2.2 0 0 1-.798-.904q-.291-.588-.291-1.393 0-.804.29-1.392.291-.585.799-.904a2.13 2.13 0 0 1 1.158-.319q.385 0 .724.112.34.112.614.329.273.213.457.522.184.305.253.698m5.292.954q0 .806-.29 1.393-.291.585-.799.904a2.13 2.13 0 0 1-1.158.319q-.651 0-1.158-.319a2.2 2.2 0 0 1-.798-.904q-.291-.588-.291-1.393 0-.804.29-1.392.292-.585.799-.904a2.13 2.13 0 0 1 1.158-.319q.651 0 1.158.319.507.318.798.905.291.586.291 1.391m-.596 0q0-.66-.222-1.116a1.6 1.6 0 0 0-.594-.688 1.54 1.54 0 0 0-.835-.234q-.462 0-.838.234a1.63 1.63 0 0 0-.594.688q-.219.456-.219 1.117 0 .66.22 1.116.22.454.593.688.376.234.838.234t.835-.234q.375-.233.594-.688.222-.456.221-1.117m1.633-2.545h.736l1.73 4.226h.06l1.73-4.226h.735V19.5h-.576v-3.868h-.05l-1.59 3.868h-.557l-1.59-3.868h-.05V19.5h-.577zm6.227 5.091v-5.09h1.72q.6 0 .98.215.383.214.567.58.183.365.184.815 0 .45-.184.818-.182.367-.562.586-.381.217-.975.217h-1.233v-.547h1.213q.41 0 .66-.142a.85.85 0 0 0 .36-.383q.114-.243.114-.55a1.3 1.3 0 0 0-.114-.546.8.8 0 0 0-.363-.378q-.252-.14-.666-.139h-1.084V19.5zm4.444 0v-5.09h.616v4.543h2.367v.547zm4.554-5.09v5.09h-.617v-5.09zm1.444 5.09h-.646l1.87-5.09h.636l1.87 5.09h-.647L51.3 15.214h-.04zm.24-1.989h2.604v.547H49.98zm8.319-3.102V19.5h-.597l-2.774-3.997h-.05V19.5h-.616v-5.09h.597l2.784 4.006h.05V14.41zm.955.547v-.547h3.818v.547h-1.6V19.5h-.617v-4.544z"/></svg>
